X:503
T: Eine groe Freud' verknd' ich euch (5-99), S. 157
N: P0773
O: Lothringen
S: MERKELBACH-PINCK, Angelika: Verklingende Weisen, Bd 5, Kassel 1962]
R: geistliches Lied, Weihnachtslied]
M: 3/4
L: 1/8
K: G
DD | G4A2 | B4d2 | B4A2 | G4
B2 | d4B2 | A4G2 | F4E2 | D4
G2 | F2G2F2 | E4G2 | G2A2F2 | E4
G2 | AAA2c2 | GGG2A2 | D2E2F2 | G4

@@@ Tune index: 8053
